X:1
T:Billy Taylor
M:4/4
L:1/8
K:C
 C3/2 C/2 CD ED EG| A3/2 A/2 GE CD E2| C3/2 C/2 CD ED EG| A3/2 A/2 GE CD E2|\
 CC C3/2 D/2 ED EG| AA G3/2 E/2 DD C2| c3/2 c/2 cG AA AF| c/2c/2 cc GA A G2|\
 cc cG AA Ac| G G/2A/2 GF A,B, C2|
